X: 1
T:The Keelman's reason for attending Church
M:2/4
L:1/8
K:Bb
F|FBB>G|Acc>c|dBB>F|DFzF|FBB>G|Acc>cdBB>F|DFzF|GEEG|FDDF|EDCB,|DFzF|GEEG
|FDB3,c|ddF>d|cB2||
% Output from ABC2Win  Version 2.1 i on 3/9/2000
